core/img/rss.svg

<?xml version="1.0" encoding="UTF-8" standalone="no"?>
<svg xmlns="http://www.w3.org/2000/svg" version="1.1" xml:space="preserve" enable-background="new 0 0 32 32" xmlns:xlink="http://www.w3.org/1999/xlink" viewBox="0 0 32 32"><path d="m16 0c-8.837 0-16 7.163-16 16 0 8.836 7.163 16 16 16s16-7.164 16-16c0-8.837-7.163-16-16-16z" fill="#F8991D"/><path d="m21.705 22.647h2.942c0-8.434-6.861-15.3-15.294-15.3v2.934c6.81 0 12.352 5.548 12.352 12.366zm-10.315 0.005c1.128 0 2.039-0.906 2.039-2.029 0-1.117-0.911-2.033-2.039-2.033-1.123 0-2.036 0.916-2.036 2.033-0.001 1.123 0.912 2.029 2.036 2.029zm5.116-0.004h2.945c0-5.57-4.531-10.101-10.099-10.101v2.933c1.91 0 3.705 0.746 5.057 2.1 1.352 1.349 2.097 3.152 2.097 5.068z" fill="#fff"/><defs><path id="a" d="m50.696-47.198c-8.837 0-16 7.163-16 16 0 8.836 7.163 16 16 16s16-7.164 16-16c0-8.836-7.163-16-16-16z"/></defs><clipPath><use overflow="visible" xlink:href="#a"/></clipPath></svg>

<?xml version="1.0" encoding="UTF-8" standalone="no"?>
<svg
   xmlns:dc="http://purl.org/dc/elements/1.1/"
   xmlns:cc="http://creativecommons.org/ns#"
   xmlns:rdf="http://www.w3.org/1999/02/22-rdf-syntax-ns#"
   xmlns:svg="http://www.w3.org/2000/svg"
   xmlns="http://www.w3.org/2000/svg"
   xmlns:xlink="http://www.w3.org/1999/xlink"
   xmlns:sodipodi="http://sodipodi.sourceforge.net/DTD/sodipodi-0.dtd"
   xmlns:inkscape="http://www.inkscape.org/namespaces/inkscape"
   enable-background="new 0 0 32 32"
   version="1.1"
   viewBox="0 0 32 32"
   xml:space="preserve"
   id="svg2"
   inkscape:version="0.91 r13725"
   sodipodi:docname="rss.svg"><metadata
     id="metadata25"><rdf:RDF><cc:Work
         rdf:about=""><dc:format>image/svg+xml</dc:format><dc:type
           rdf:resource="http://purl.org/dc/dcmitype/StillImage" /></cc:Work></rdf:RDF></metadata><defs
     id="defs23" /><sodipodi:namedview
     pagecolor="#ffffff"
     bordercolor="#666666"
     borderopacity="1"
     objecttolerance="10"
     gridtolerance="10"
     guidetolerance="10"
     inkscape:pageopacity="0"
     inkscape:pageshadow="2"
     inkscape:window-width="2560"
     inkscape:window-height="1359"
     id="namedview21"
     showgrid="false"
     inkscape:zoom="7.375"
     inkscape:cx="16"
     inkscape:cy="16"
     inkscape:window-x="0"
     inkscape:window-y="240"
     inkscape:window-maximized="1"
     inkscape:current-layer="g5" /><g
     id="Flat_copy_6"><g
       id="g5"><path
         d="M16,0C7.163,0,0,7.163,0,16c0,8.836,7.163,16,16,16s16-7.164,16-16C32,7.163,24.837,0,16,0z"
         fill="#FABC3D"
         id="path7"
         style="fill:#F8991D" /></g><path
       d="M21.705,22.647h2.942c0-8.434-6.861-15.3-15.294-15.3v2.934C16.163,10.281,21.705,15.829,21.705,22.647z    M11.39,22.652c1.128,0,2.039-0.906,2.039-2.029c0-1.117-0.911-2.033-2.039-2.033c-1.123,0-2.036,0.916-2.036,2.033   C9.353,21.746,10.266,22.652,11.39,22.652z M16.506,22.648L16.506,22.648h2.945c0-5.57-4.531-10.101-10.099-10.101v2.933   c1.91,0,3.705,0.746,5.057,2.1C15.761,18.929,16.506,20.732,16.506,22.648z"
       fill="#FFFFFF"
       id="path9" /><g
       id="g11"><defs
         id="defs13"><path
           d="M50.696-47.198c-8.837,0-16,7.163-16,16c0,8.836,7.163,16,16,16s16-7.164,16-16     C66.696-40.034,59.533-47.198,50.696-47.198z"
           id="SVGID_3_" /></defs><clipPath
         id="SVGID_4_"><use
           overflow="visible"
           xlink:href="#SVGID_3_"
           id="use17" /></clipPath><g
         clip-path="url(#SVGID_4_)"
         opacity="0.99"
         id="g19" /></g></g></svg>
